X:1
T:Title
%%score { 1 | 2 }
L:1/8
M:4/4
K:F
V:1 treble nm="Grand Piano"
V:2 bass 
V:1
 z4 z2[Q:1/4=100] F>G | A2 c2 c2 A>G | F2 D2 C4 | AAAA AGFA | [EG]4 F2 F>G | A2 c2 [Ac]2 A>G | %6
 F2 D2 [F,A,C]4 | AAAA AGFA | [EG]4 F2 c>c | d2 d2 d2 c>d | [Af]2 [Bd]2 [Ac]4 | AAAA AGFA | %12
 [EG]4 F2 c>c | d2 d2 d2 c>d | [Af]2 [Bd]2 [Ac]4 | AAAA AGFA | [EG]4 F2 z2 | cccc cABc | d4 d4 | %19
 cccc cAGF |[M:3/4] [EG]4 [EG]2 |[M:1/4] F>G |[M:4/4] A2 [Ac]2 [Ac]2 [FA]>[EG] | [DF]2 D2 C4 | %24
 AAAA AGFA |[M:7/8] [EG]- [EG]3 F2 z |] %26
V:2
 z8 | [F,A,C]2 z2 [F,A,C]2 z2 | [F,B,D]2 z2 [F,A,]4 | %3
 [F,CF][F,CF][F,CF][F,CF] [F,CF][F,B,E][F,A,][F,CF] | [C,B,]4 [F,A,]2 z z/[K:treble] E/ | %5
 [F,A,CF]2 A2 [F,A,C]2 F>E | [F,B,D]2 B,2 F,,4 | %7
 [F,CF][F,CF][F,CF][F,CF] [F,CF][F,B,E][F,A,][F,CF] | [C,B,]4 [F,A,]2[K:treble] [F,A,F]>[F,A,F] | %9
 [B,F]2 [B,F]2 [B,F]2 [B,DF]>[B,F] | [F,C]2 [F,F]2 [F,F]4 | %11
 [F,CF][F,CF][F,CF][F,CF] [F,CF][F,B,E][F,A,][F,CF] | [C,B,]4 [F,A,]2[K:treble] [F,A,F]>[F,A,F] | %13
 [B,F]2 [B,F]2 [B,F]2 [B,DF]>[B,F] | [F,C]2 [F,F]2 [F,F]4 | %15
 [F,CF][F,CF][F,CF][F,CF] [F,CF][F,B,E][F,A,][F,CF] | [C,B,]4 [F,A,]2 z2 | %17
 [F,A,F][F,A,F][F,A,F][F,A,F] [F,A,F][F,CF][G,CE][A,CF] | [B,F]4 [B,F]4 | %19
 [F,A,F][F,A,F][F,A,F][F,A,F] [F,CF][F,CF][F,B,E][F,A,] |[M:3/4] [C,C]4 [C,C]2 | %21
[M:1/4] [F,A,]>[F,B,E] |[M:4/4] [F,CF]2 [F,C]2 [F,C]2 [F,C]>[F,A,] | [B,,B,]2 [B,,F,B,]2 [F,A,]4 | %24
 [F,CF][F,CF][F,CF][F,CF] [F,CF][F,B,E][F,A,][F,CF] |[M:7/8] [C,B,]- [C,B,]3 [F,A,]2 z |] %26

